!!!!SEGMENT: pl-cz--iii-47--001_bulakowski-stefan--msza-as-kyrie.krn
!!!cenid: 18xx:692
!!!COM: Bułakowski, Stefan
!!!COM-rismid: pe30085804
!!!CDT: 1784-1852
!!!CNT:
!!!OPR: Msza As
!!!OTL: Kyrie
!!!OMV: 001
!!!PDT:
!!!AGN: Sacred; Mass
!!!SMS-siglum: PL-CZ
!!!SMS-shelfmark: III-47
!!!SMS-shelfwork: 001-001 M
!!!SMS-variant:
!!!SMS-altvar:
!!!NIFC-rismid: 300000053
!!!URL-scan: http://repozytorium.nifc.pl/skany/pl-cz-nut--iii-47
!!!ONB-nifc: UWAGA: części Mszy: Kyrie, Gloria, Justus ut palma, Credo, Et incarnatus, Et resurrexit, Veritas mea, Sanctus, Pleni, Benedictus, Agnus Dei, Dona nobis
!!!AIN: 2 clars 2 cor 1 empty 2 fagot 2 tenor 1 tromt
!!!key:
**kern	**text	**dynam	**kern	**text	**dynam	**kern	**text	**dynam	**kern	**dynam	**kern	**dynam	**kern	**dynam	**kern	**dynam	**kern	**dynam	**kern	**dynam	**kern	**dynam
*part10	*part10	*part10	*part9	*part9	*part9	*part8	*part8	*part8	*part7	*part7	*part6	*part6	*part5	*part5	*part4	*part4	*part3	*part3	*part2	*part2	*part1	*part1
*group3	*group3	*group3	*group3	*group3	*group3	*group3	*group2	*group2	*group2	*group2	*group2	*group2	*group2	*group2	*group1	*group1	*group1	*group1	*group1	*group1	*group1	*group1
*staff10	*staff10	*	*staff9	*staff9	*	*staff8	*staff8	*	*staff7	*	*staff6	*	*staff5	*	*staff4	*	*staff3	*	*staff2	*	*staff1	*
*Iempty	*	*	*Itenor	*	*	*Itenor	*	*	*Itromt	*	*Icor	*	*Icor	*	*Ifagot	*	*Ifagot	*	*Iclars	*	*Iclars	*
*I"Baſso.	*	*	*I"Tenore 2do	*	*	*I"Tenore 1mo	*	*	*I"Trombone	*	*I"Corno. 2do in as.	*	*I"Corno 1mo in as.	*	*I"Fagotto. 2do	*	*I"Fagotto 1mo	*	*I"Clarinetto. 2do in B.	*	*I"Clarinetto. 1mo in B.	*
*I'B	*	*	*I'T 2	*	*	*I'T 1	*	*	*I'trb	*	*I'cor 2	*	*I'cor 1	*	*I'fag 2	*	*I'fag 1	*	*I'cl 2	*	*I'cl 1	*
*clefF4	*	*	*clefC4	*	*	*clefC4	*	*	*clefF4	*	*clefG2	*	*clefG2	*	*clefF4	*	*clefF4	*	*clefG2	*	*clefG2	*
*	*	*	*	*	*	*	*	*	*	*	*ITrd2c4	*	*ITrd2c4	*	*	*	*	*	*ITrd1c2	*	*ITrd1c2	*
*k[b-e-a-d-]	*	*	*k[b-e-a-d-]	*	*	*k[b-e-a-d-]	*	*	*k[b-e-a-d-]	*	*k[b-e-a-d-]	*	*k[b-e-a-d-]	*	*k[b-e-a-d-]	*	*k[b-e-a-d-]	*	*k[b-e-a-d-]	*	*k[b-e-a-d-]	*
*A-:	*	*	*A-:	*	*	*A-:	*	*	*A-:	*	*A-:	*	*A-:	*	*A-:	*	*A-:	*	*A-:	*	*A-:	*
*M3/4	*	*	*M3/4	*	*	*M3/4	*	*	*M3/4	*	*M3/4	*	*M3/4	*	*M3/4	*	*M3/4	*	*M3/4	*	*M3/4	*
=1	=1	=1	=1	=1	=1	=1	=1	=1	=1	=1	=1	=1	=1	=1	=1	=1	=1	=1	=1	=1	=1	=1
*	*	*	*	*	*	*	*	*	*	*	*	*	*	*	*	*	*	*	*	*	*2\right	*
!LO:TX:a:i:t=Adagio	!	!	!LO:TX:a:i:t=Adagio	!	!	!	!	!	!	!	!	!	!	!	!	!	!	!	!	!	!LO:TX:a:i:t=Adagio	!
!	!	!	!	!	!	!	!	!	!	!	!LO:TX:a:i:t=Adagio.	!	!LO:TX:a:i:t=Adagio.	!	!LO:TX:a:i:t=Adagio	!	!LO:TX:a:i:t=Adagio	!	!LO:TX:a:i:t=Adagio	!	!	!
!	!	!	!	!	!	!	!	!	!LO:TX:a:i:t=Adagio	!	!	!	!	!	!	!	!	!	!	!	!	!
!LO:TX:a:t=P:problem=nie wyświetla się fermata nad pauzą	!	!	!LO:TX:a:t=P:problem=nie wyświetla się fermata nad pauzą	!	!	!LO:TX:a:t=P:problem=nie wyświetla się fermata nad pauzą	!	!	!	!	!	!	!	!	!	!	!	!	!	!	!	!
!	!	!	!	!	!	!LO:TX:a:i:t=Adagio	!	!	!	!	!	!	!	!	!	!	!	!	!	!	!	!
!	!	!	!	!	!	!	!	!	!	!	!LO:TX:a:t=P:problem=diminuendolike accent	!	!LO:TX:a:t=P:problem=diminuendolike accent	!	!LO:TX:a:t=P:problem=diminuendolike accent	!	!LO:TX:a:t=P:problem=diminuendolike accent	!	!	!	!LO:TX:a:t=P:problem=diminuendolike accent	!
!	!	!	!	!	!	!	!	!	!	!	!	!LO:HP:a	!	!LO:HP:a	!	!	!	!LO:HP:a	!	!	!	!
!	!	!	!	!	!	!	!	!	!	!	!	!	!	!	!	!	!	!	!	!	!	!LO:DY:rj
2.r;	.	.	2.r;	.	.	2.r;	.	.	2.AA-;>/	.	2.A-;/	<	2.A-;/	<	2.AA-;/	<	2.AA-;/	<	2.A-^>;/	.	2.a-;\	p<
!	!	!	!	!	!	!	!	!	!	!LO:DY:b:t=p.	!	!	!	!	!	!	!	!	!	!	!	!
!LO:TX:a:t=1	!	!	!LO:TX:a:t=1	!	!	!LO:TX:a:t=1	!	!	!	!	!	!	!	!	!	!	!	!	!	!	!	!
!	!	!	!	!	!	!	!	!	!	!	!LO:TX:a:t=P:problem=diminuendolike accent	!	!LO:TX:a:t=P:problem=diminuendolike accent	!	!LO:TX:a:t=P:problem=diminuendolike accent	!	!LO:TX:a:t=P:problem=diminuendolike accent	!	!	!	!LO:TX:a:t=P:problem=diminuendolike accent	!
!	!	!	!	!	!	!	!	!	!	!	!	!LO:HP:a	!	!LO:HP:a	!	!	!	!LO:HP:a	!	!	!	!
.	.	.	.	.	.	.	.	.	.	p	.	[>	.	[>	.	[>	.	[>	.	.	.	[>
.	.	.	.	.	.	.	.	.	.	.	.	]	.	]	.	]	.	]	.	.	.	]
=2	=2	=2	=2	=2	=2	=2	=2	=2	=2	=2	=2	=2	=2	=2	=2	=2	=2	=2	=2	=2	=2	=2
*	*	*	*	*	*	*2\right	*	*	*	*	*	*	*2\right	*	*	*	*2\right	*	*	*	*	*
!	!	!	!	!	!	!	!	!LO:DY:b:t=p.	!	!	!	!	!	!	!	!	!	!	!	!	!	!
!	!	!	!	!	!	!	!	!LO:DY:rj	!	!	!	!	!	!	!	!	!	!	!	!	!	!
!	!	!LO:DY:b	!	!	!	!	!	!	!	!	!	!	!	!	!	!	!	!	!	!	!	!
!	!	!LO:DY:rj	!	!	!	!	!	!	!	!	!	!	!	!	!	!	!	!	!	!	!	!
!	!	!	!	!	!	!	!	!	!	!	!	!	!	!	!	!	!	!LO:DY:rj	!	!	!	!
!	!	!	!	!	!	!	!	!	!	!	!	!LO:DY:rj	!	!LO:DY:rj	!	!LO:DY:rj	!	!	!	!	!	!
!	!	!	!	!	!	!	!	!	!	!	!	!	!	!	!	!	!	!	!	!LO:DY:rj	!	!LO:DY:rj
2AA-/	Ky-	p	2C/	Ky-	.	2A-\	Ky-	p	2AA-/	.	2c/	p	2a-\	p	2AA-/	p	2c\	p	8r	p	8r	p
.	.	.	.	.	.	.	.	.	.	.	.	.	.	.	.	.	.	.	(<8E-/L	.	(<8A-/L	.
.	.	.	.	.	.	.	.	.	.	.	.	.	.	.	.	.	.	.	8A-/	.	8c/	.
.	.	.	.	.	.	.	.	.	.	.	.	.	.	.	.	.	.	.	8c/	.	8e-/	.
4AA-/	-ri-	.	4C/	-ri-	.	4E-/	-ri-	.	4r	.	4c/	.	4e-\	.	4A-\	.	4e-\	.	8e-/	.	8a-/	.
.	.	.	.	.	.	.	.	.	.	.	.	.	.	.	.	.	.	.	8a-/J)	.	8cc/J)	.
=3	=3	=3	=3	=3	=3	=3	=3	=3	=3	=3	=3	=3	=3	=3	=3	=3	=3	=3	=3	=3	=3	=3
[<2AA-/	-e-	.	(<2E-/	-e-	.	(>2c\	-e-	.	2AA-/	.	2e-/	.	2cc\	.	2AA-/	.	2A-\	.	8r	.	8r	.
.	.	.	.	.	.	.	.	.	.	.	.	.	.	.	.	.	.	.	(8A-/L	.	(<8c/L	.
.	.	.	.	.	.	.	.	.	.	.	.	.	.	.	.	.	.	.	8c/	.	8e-/	.
.	.	.	.	.	.	.	.	.	.	.	.	.	.	.	.	.	.	.	8e-/	.	8a-/	.
4AA-/]	.	.	4C/)	.	.	4A-\)	.	.	4r	.	8c/L	.	4a-\	.	4A-\	.	4c\	.	8a-/	.	8cc/	.
.	.	.	.	.	.	.	.	.	.	.	8A-/J	.	.	.	.	.	.	.	8cc/J)	.	8ee-/J)	.
=4	=4	=4	=4	=4	=4	=4	=4	=4	=4	=4	=4	=4	=4	=4	=4	=4	=4	=4	=4	=4	=4	=4
*2\right	*	*	*	*	*	*	*	*	*2\right	*	*	*	*	*	*	*	*	*	*	*	*	*
2E-\	-le-	.	(<4BB-/	-le-	.	(>4G\	-le-	.	2E-\	.	2.E-/	.	2.e-/	.	4G\	.	4B-\	.	4b-\	.	4gg\	.
.	.	.	4BBn/)	.	.	4A-\)	.	.	.	.	.	.	.	.	4A-\	.	4c-X\	.	4cc-X\	.	4aa-\	.
4E-\	-i-	.	4C/	-i-	.	4An\	-i-	.	4E-\	.	.	.	.	.	4An\	.	4cn\	.	4cc\	.	4aa\	.
!LO:LB:g=original	!	!	!LO:LB:g=original	!	!	!LO:LB:g=original	!	!	!	!	!	!	!	!	!	!	!	!	!	!	!	!
=5	=5	=5	=5	=5	=5	=5	=5	=5	=5	=5	=5	=5	=5	=5	=5	=5	=5	=5	=5	=5	=5	=5
4E-\	-son	.	4D-/	-son	.	4B-\	-son	.	4E-\	.	4E-/	.	4e-/	.	8B-\L	.	8d-\L	.	16dd-'\LL	.	16bb-'\LL	.
.	.	.	.	.	.	.	.	.	.	.	.	.	.	.	.	.	.	.	16dd-'\	.	16bb-'\	.
.	.	.	.	.	.	.	.	.	.	.	.	.	.	.	8A-\	.	8c\	.	16cc'\	.	16aa-'\	.
.	.	.	.	.	.	.	.	.	.	.	.	.	.	.	.	.	.	.	16cc'\JJ	.	16aa-'\JJ	.
4r	.	.	4r	.	.	4r	.	.	4r	.	4r	.	4r	.	8G\	.	8B-\	.	16b-'\LL	.	16gg'\LL	.
.	.	.	.	.	.	.	.	.	.	.	.	.	.	.	.	.	.	.	16b-'\	.	16gg'\	.
.	.	.	.	.	.	.	.	.	.	.	.	.	.	.	8F\J	.	8A-\J	.	16a-'\	.	16ff'\	.
.	.	.	.	.	.	.	.	.	.	.	.	.	.	.	.	.	.	.	16a-'\JJ	.	16ff'\JJ	.
4r	.	.	4r	.	.	4r	.	.	4r	.	4r	.	4r	.	4E-\	.	4G\	.	4g'\	.	4ee-'\	.
!	!	!	!	!	!	!	!	!	!LO:LB:g=original	!	!	!	!	!	!	!	!	!	!LO:LB:g=original	!	!LO:LB:g=original	!
=6	=6	=6	=6	=6	=6	=6	=6	=6	=6	=6	=6	=6	=6	=6	=6	=6	=6	=6	=6	=6	=6	=6
2E-\	Ky-	.	2G/	Ky-	.	2B-\	Ky-	.	2E-\	.	2e-/	.	2b-\	.	2EE-/	.	2B-\	.	8r	.	8r	.
.	.	.	.	.	.	.	.	.	.	.	.	.	.	.	.	.	.	.	(<8E-/L	.	8G/L	.
.	.	.	.	.	.	.	.	.	.	.	.	.	.	.	.	.	.	.	8G/	.	8B-/	.
.	.	.	.	.	.	.	.	.	.	.	.	.	.	.	.	.	.	.	8B-/	.	8e-/	.
4E-\	-ri-	.	4E-/	-ri-	.	4E-/	-ri-	.	4r	.	4e-/	.	4e-\	.	4E-\	.	4d-\	.	8e-/	.	8g/	.
.	.	.	.	.	.	.	.	.	.	.	.	.	.	.	.	.	.	.	8g/J)	.	8b-/J	.
!	!	!	!	!	!	!	!	!	!	!	!	!	!	!	!LO:LB:g=original	!	!LO:LB:g=original	!	!	!	!	!
=7	=7	=7	=7	=7	=7	=7	=7	=7	=7	=7	=7	=7	=7	=7	=7	=7	=7	=7	=7	=7	=7	=7
*	*	*	*2\right	*	*	*	*	*	*	*	*2\right	*	*	*	*	*	*	*	*	*	*	*
2.E-\	-e-	.	(>2B-\	-e-	.	(>2d-\	-e-	.	2E-\	.	2b-\	.	2dd-\	.	2EE-/	.	2G\	.	8r	.	8r	.
.	.	.	.	.	.	.	.	.	.	.	.	.	.	.	.	.	.	.	(<8G/L	.	8B-/L	.
.	.	.	.	.	.	.	.	.	.	.	.	.	.	.	.	.	.	.	8B-/	.	8e-/	.
.	.	.	.	.	.	.	.	.	.	.	.	.	.	.	.	.	.	.	8e-/	.	8g/	.
.	.	.	8A-\L	.	.	8c\L	.	.	4r	.	8a-\L	.	8cc\L	.	4E-\	.	4B-\	.	8g/	.	8b-/	.
.	.	.	8E-\J)	.	.	8B-\J)	.	.	.	.	8e-\J	.	8b-\J	.	.	.	.	.	8b-/J)	.	8ee-/J	.
!	!	!	!	!	!	!	!	!	!	!	!LO:LB:g=original	!	!LO:LB:g=original	!	!	!	!	!	!	!	!	!
=8	=8	=8	=8	=8	=8	=8	=8	=8	=8	=8	=8	=8	=8	=8	=8	=8	=8	=8	=8	=8	=8	=8
2AA-/	-le-	.	(<4C/	-le-	.	(>4A-\	-le-	.	2AA-/	.	4c/	.	4a-\	.	2AA-/	.	2.A-\	.	4a-\	.	4cc\	.
.	.	.	4D-/)	.	.	4B-\)	.	.	.	.	4d-/	.	4b-\	.	.	.	.	.	4b-\	.	4dd-\	.
4AA-/	-i-	.	4Dn/	-i-	.	4Bn\	-i-	.	4AA-/	.	4dX/	.	4bX\	.	4A-\	.	.	.	4bX\	.	4dd\	.
=9	=9	=9	=9	=9	=9	=9	=9	=9	=9	=9	=9	=9	=9	=9	=9	=9	=9	=9	=9	=9	=9	=9
4AA-/	-son	.	4E-/	-son	.	4c\	-son	.	4AA-/	.	4e-/	.	4cc\	.	4AA-/	.	4A-\	.	4cc\	.	4ee-\	.
4r	.	.	8r	.	.	8r	.	.	4r	.	4r	.	4r	.	4r	.	4r	.	8r	.	8r	.
.	.	.	8A-\	Chri-	.	8c\	Chry-	.	.	.	.	.	.	.	.	.	.	.	8a-'\L	.	8cc\L	.
4r	.	.	8B-\	-ste	.	8d-\	-ste	.	4r	.	4r	.	4r	.	4r	.	4r	.	8b-'\	.	8dd-\	.
.	.	.	8c\	e-	.	8e-\	e-	.	.	.	.	.	.	.	.	.	.	.	8cc'\J	.	8ee-\J	.
!	!	!	!LO:LB:g=original	!	!	!LO:LB:g=original	!	!	!	!	!	!	!	!	!	!	!	!	!	!	!	!
=10	=10	=10	=10	=10	=10	=10	=10	=10	=10	=10	=10	=10	=10	=10	=10	=10	=10	=10	=10	=10	=10	=10
4E-\	Chri-	.	(>8.c^\L	-lei-	.	(>8.e-^\L	-lei-	.	2E-\	.	4r	.	4r	.	8E-\L	.	8E-\L	.	(>8.cc^<\L	.	(>8.ee-^<\L	.
.	.	.	.	.	.	.	.	.	.	.	.	.	.	.	8e-\J	.	8e-\J	.	.	.	.	.
.	.	.	32B-\LL	.	.	32d-\LL	.	.	.	.	.	.	.	.	.	.	.	.	32b-\LL	.	32dd-\LL	.
.	.	.	32A-\JJJ)	.	.	32c\JJJ)	.	.	.	.	.	.	.	.	.	.	.	.	32a-\JJJ	.	32cc\JJJ	.
4E-\	-ste	.	8G\	-son	.	8B-\	-son	.	.	.	2e-/	.	2b-\	.	4E-\	.	4E-\	.	8g\L)	.	8b-\L)	.
.	.	.	8G\	Chri-	.	8B-\	Chry-	.	.	.	.	.	.	.	.	.	.	.	8g\	.	8b-'\	.
8r	.	.	8A-\	-ste	.	8c\	-ste	.	4r	.	.	.	.	.	4r	.	4r	.	8a-\	.	8cc'\	.
8E-\	e-	.	8B-\	e-	.	8d-\	e-	.	.	.	.	.	.	.	.	.	.	.	8b-\J	.	8dd-'\J	.
!LO:LB:g=original	!	!	!	!	!	!	!	!	!	!	!	!	!	!	!	!	!	!	!	!	!	!
=11	=11	=11	=11	=11	=11	=11	=11	=11	=11	=11	=11	=11	=11	=11	=11	=11	=11	=11	=11	=11	=11	=11
!	!	!	!	!	!	!	!	!	!	!	!	!	!	!	!LO:TX:a:t=P:problem=mixed beam	!	!LO:TX:a:t=P:problem=mixed beam	!	!	!	!	!
4AA-/	-lei-	.	(>8.B-^\L	-lei-	.	(>8.d-^\L	-lei-	.	2AA-/	.	4r	.	4r	.	8AA-/L	.	8AA-/L	.	(>8.b-^<\L	.	(>8.dd-^<\L	.
.	.	.	.	.	.	.	.	.	.	.	.	.	.	.	8A-\J	.	8A-\J	.	.	.	.	.
.	.	.	32A-\LL	.	.	32c\LL	.	.	.	.	.	.	.	.	.	.	.	.	32a-\LL	.	32cc\LL	.
.	.	.	32E-\JJJ)	.	.	32B-\JJJ)	.	.	.	.	.	.	.	.	.	.	.	.	32e-\JJJ)	.	32b-\JJJ	.
4AA-/	-son	.	8C/	-son	.	8A-\	-son	.	.	.	2a-\	.	2cc\	.	4AA-/	.	4AA-/	.	8c/L	.	8a-\L)	.
.	.	.	8A-\	Chri-	.	8A-\	Chry-	.	.	.	.	.	.	.	.	.	.	.	8c/	.	8a-'\	.
4r	.	.	8G\	-ste	.	8B-\	-ste	.	4r	.	.	.	.	.	4r	.	4r	.	8g/	.	8b-'\	.
.	.	.	8A-\	e-	.	8c\	e-	.	.	.	.	.	.	.	.	.	.	.	8a-/J	.	8cc'\J	.
!	!	!	!	!	!	!	!	!	!	!	!	!	!	!	!	!	!	!	!LO:LB:g=original	!	!LO:LB:g=original	!
=12	=12	=12	=12	=12	=12	=12	=12	=12	=12	=12	=12	=12	=12	=12	=12	=12	=12	=12	=12	=12	=12	=12
*	*	*	*	*	*	*	*	*	*	*	*	*	*	*	*2\right	*	*	*	*	*	*	*
2BB-/	le-	.	2Dn/	-le-	.	8c\	-le-	.	2.BB-^>/	.	2.a-\	.	2.b-\	.	2.F^<\	.	2.dn^<\	.	2.d/	.	8cc\L	.
.	.	.	.	.	.	8B-\	-i-	.	.	.	.	.	.	.	.	.	.	.	.	.	8b-\	.
.	.	.	.	.	.	8c\	-son	.	.	.	.	.	.	.	.	.	.	.	.	.	8cc\	.
.	.	.	.	.	.	8B-\	e-	.	.	.	.	.	.	.	.	.	.	.	.	.	8b-\	.
4BB-/	-i-	.	4D'/	-i-	.	8A-\	-le-	.	.	.	.	.	.	.	.	.	.	.	.	.	8a-\	.
.	.	.	.	.	.	8F/	-i-	.	.	.	.	.	.	.	.	.	.	.	.	.	8f\J	.
!	!	!	!LO:LB:g=original	!	!	!LO:LB:g=original	!	!	!	!	!	!	!	!	!	!	!	!	!	!	!	!
=13	=13	=13	=13	=13	=13	=13	=13	=13	=13	=13	=13	=13	=13	=13	=13	=13	=13	=13	=13	=13	=13	=13
!	!	!	!	!	!	!	!	!	!	!	!	!	!	!	!	!	!	!	!	!	!LO:TX:a:t=P:problem=mixed beam	!
8E-\	-son	.	8E-/	-son	.	8E-/	-son	.	4E-\	.	4e-/	.	4b-\	.	8E-\	.	8e-\	.	8e-\L	.	16e-'/LL	.
.	.	.	.	.	.	.	.	.	.	.	.	.	.	.	.	.	.	.	.	.	16e-'/	.
8r	.	.	8r	.	.	8r	.	.	.	.	.	.	.	.	8G\L	.	8e-\L	.	8g\	.	16ee-'\	.
.	.	.	.	.	.	.	.	.	.	.	.	.	.	.	.	.	.	.	.	.	16ee-'\JJ	.
4r	.	.	4r	.	.	4r	.	.	4r	.	8r	.	8r	.	8A-\	.	8dn\	.	8a-\	.	16dd'\LL	.
.	.	.	.	.	.	.	.	.	.	.	.	.	.	.	.	.	.	.	.	.	16dd'\	.
.	.	.	.	.	.	.	.	.	.	.	8b-\L	.	8dd-\L	.	8B-\	.	8d-X\	.	8b-\	.	16dd-X'\	.
.	.	.	.	.	.	.	.	.	.	.	.	.	.	.	.	.	.	.	.	.	16dd-'\JJ	.
4r	.	.	4r	.	.	4r	.	.	4r	.	8a-\	.	8cc\	.	8A-\	.	8c\	.	8a-\	.	16cc'\LL	.
.	.	.	.	.	.	.	.	.	.	.	.	.	.	.	.	.	.	.	.	.	16cc'\	.
.	.	.	.	.	.	.	.	.	.	.	8e-\J	.	8b-\J	.	8E-\J	.	8B-\J	.	8g\J	.	16b-'\	.
.	.	.	.	.	.	.	.	.	.	.	.	.	.	.	.	.	.	.	.	.	16b-'\JJ	.
!	!	!	!	!	!	!	!	!	!LO:LB:g=original	!	!	!	!	!	!	!	!	!	!	!	!	!
=14	=14	=14	=14	=14	=14	=14	=14	=14	=14	=14	=14	=14	=14	=14	=14	=14	=14	=14	=14	=14	=14	=14
!	!	!	!	!	!	!	!	!	!	!LO:DY:rj	!	!	!	!	!	!	!	!	!	!	!	!
!	!	!	!	!	!	!	!	!	!	!LO:DY:b:t=p.	!	!	!	!	!	!	!	!	!	!	!	!
!	!	!	!	!	!	!	!	!LO:DY:rj	!	!	!	!	!	!	!	!	!	!	!	!	!	!
!	!	!	!	!	!	!	!	!LO:DY:b:t=p.	!	!	!	!	!	!	!	!	!	!	!	!	!	!
!	!	!	!	!	!	!	!	!	!	!	!	!LO:DY:rj	!	!LO:DY:rj	!	!LO:DY:rj	!	!LO:DY:rj	!	!LO:DY:rj	!	!LO:DY:rj
2AA-/	Ky-	.	2C/	Ky-	.	2A-\	Ky-	p	2AA-/	p	2c/	p	2a-\	p	2AA-/	p	2c\	p	8r	p	8r	p
.	.	.	.	.	.	.	.	.	.	.	.	.	.	.	.	.	.	.	(<8E-/L	.	(<8A-/L	.
.	.	.	.	.	.	.	.	.	.	.	.	.	.	.	.	.	.	.	8A-/	.	8c/	.
.	.	.	.	.	.	.	.	.	.	.	.	.	.	.	.	.	.	.	8c/	.	8e-/	.
4AA-/	-ri-	.	4C/	-ri-	.	4E-/	-ri-	.	4r	.	4c/	.	4e-\	.	4A-\	.	4e-\	.	8e-/	.	8a-/	.
.	.	.	.	.	.	.	.	.	.	.	.	.	.	.	.	.	.	.	8a-/J)	.	8cc/J)	.
!	!	!	!	!	!	!	!	!	!	!	!	!	!	!	!LO:LB:g=original	!	!LO:LB:g=original	!	!	!	!	!
=15	=15	=15	=15	=15	=15	=15	=15	=15	=15	=15	=15	=15	=15	=15	=15	=15	=15	=15	=15	=15	=15	=15
2.AA-/	-e-	.	(<2E-/	-e-	.	(>2c\	-e-	.	2AA-/	.	2e-/	.	2cc\	.	2AA-/	.	2A-\	.	8r	.	8r	.
.	.	.	.	.	.	.	.	.	.	.	.	.	.	.	.	.	.	.	(<8A-/L	.	(<8c/L	.
.	.	.	.	.	.	.	.	.	.	.	.	.	.	.	.	.	.	.	8c/	.	8e-/	.
.	.	.	.	.	.	.	.	.	.	.	.	.	.	.	.	.	.	.	8e-/	.	8a-/	.
.	.	.	4C/)	.	.	4A-\)	.	.	4r	.	8c/L	.	4a-\	.	4A-\	.	4c\	.	8a-/	.	8cc/	.
.	.	.	.	.	.	.	.	.	.	.	8A-/J	.	.	.	.	.	.	.	8cc/J)	.	8ee-/J)	.
!LO:LB:g=original	!	!	!	!	!	!	!	!	!	!	!LO:LB:g=original	!	!LO:LB:g=original	!	!	!	!	!	!	!	!	!
=16	=16	=16	=16	=16	=16	=16	=16	=16	=16	=16	=16	=16	=16	=16	=16	=16	=16	=16	=16	=16	=16	=16
2E-\	-le-	.	(<4BB-/	-le-	.	(>4G\	-le-	.	2E-\	.	2.E-/	.	2.e-/	.	4G\	.	4B-\	.	4b-\	.	4gg\	.
.	.	.	4BBn/)	.	.	4A-\)	.	.	.	.	.	.	.	.	4A-\	.	4c-X\	.	4cc-X\	.	4aa-\	.
4E-\	-i-	.	4C/	-i-	.	4An\	-i-	.	4E-\	.	.	.	.	.	4An\	.	4cn\	.	4cc\	.	4aa\	.
!	!	!	!	!	!	!	!	!	!	!	!	!	!	!	!	!	!	!	!	!	!LO:LB:g=original	!
=17	=17	=17	=17	=17	=17	=17	=17	=17	=17	=17	=17	=17	=17	=17	=17	=17	=17	=17	=17	=17	=17	=17
4E-\	-son	.	4D-X/	-son	.	4B-\	-son	.	4E-\	.	4E-/	.	4e-/	.	8B-\L	.	8d-\L	.	16dd-'\LL	.	16bb-'\LL	.
.	.	.	.	.	.	.	.	.	.	.	.	.	.	.	.	.	.	.	16dd-'\	.	16bb-'\	.
.	.	.	.	.	.	.	.	.	.	.	.	.	.	.	8A-\	.	8c\	.	16cc'\	.	16aa-'\	.
.	.	.	.	.	.	.	.	.	.	.	.	.	.	.	.	.	.	.	16cc'\JJ	.	16aa-'\JJ	.
4r	.	.	4r	.	.	4r	.	.	4r	.	4r	.	4r	.	8G\	.	8B-\	.	16b-'\LL	.	16gg'\LL	.
.	.	.	.	.	.	.	.	.	.	.	.	.	.	.	.	.	.	.	16b-'\	.	16gg'\	.
.	.	.	.	.	.	.	.	.	.	.	.	.	.	.	8F\J	.	8A-\J	.	16a-'\	.	16ff'\	.
.	.	.	.	.	.	.	.	.	.	.	.	.	.	.	.	.	.	.	16a-'\JJ	.	16ff'\JJ	.
4r	.	.	4r	.	.	4r	.	.	4r	.	4r	.	4r	.	4E-\	.	4G\	.	4g'\	.	4ee-'\	.
!	!	!	!LO:LB:g=original	!	!	!LO:LB:g=original	!	!	!	!	!	!	!	!	!	!	!	!	!	!	!	!
=18	=18	=18	=18	=18	=18	=18	=18	=18	=18	=18	=18	=18	=18	=18	=18	=18	=18	=18	=18	=18	=18	=18
2E-\	Ky-	.	2G\	Ky-	.	2B-\	Ky-	.	2E-\	.	2e-/	.	2b-\	.	2EE-/	.	2B-\	.	8r	.	8r	.
.	.	.	.	.	.	.	.	.	.	.	.	.	.	.	.	.	.	.	(<8E-/L	.	(<8G/L	.
.	.	.	.	.	.	.	.	.	.	.	.	.	.	.	.	.	.	.	8G/	.	8B-/	.
.	.	.	.	.	.	.	.	.	.	.	.	.	.	.	.	.	.	.	8B-/	.	8e-/	.
4E-\	-ri-	.	4E-/	-ri-	.	4E-/	-ri-	.	4r	.	4e-/	.	4e-\	.	4E-\	.	4d-\	.	8e-/	.	8g/	.
.	.	.	.	.	.	.	.	.	.	.	.	.	.	.	.	.	.	.	8g/J)	.	8b-/J)	.
!	!	!	!	!	!	!	!	!	!	!	!	!	!	!	!	!	!	!	!LO:LB:g=original	!	!	!
=19	=19	=19	=19	=19	=19	=19	=19	=19	=19	=19	=19	=19	=19	=19	=19	=19	=19	=19	=19	=19	=19	=19
2.E-\	-e-	.	(>2B-\	-e-	.	(>2d-\	-e-	.	2E-\	.	2b-\	.	2dd-\	.	2EE-/	.	2G\	.	8r	.	8r	.
.	.	.	.	.	.	.	.	.	.	.	.	.	.	.	.	.	.	.	(<8G/L	.	(<8B-/L	.
.	.	.	.	.	.	.	.	.	.	.	.	.	.	.	.	.	.	.	8B-/	.	8e-/	.
.	.	.	.	.	.	.	.	.	.	.	.	.	.	.	.	.	.	.	8e-/	.	8g/	.
.	.	.	8A-\L	.	.	8c\L	.	.	4r	.	8a-\L	.	8cc\L	.	4E-\	.	4B-\	.	8g/	.	8b-/	.
.	.	.	8E-\J)	.	.	8B-\J)	.	.	.	.	8e-\J	.	8b-\J	.	.	.	.	.	8b-/J)	.	8ee-/J)	.
=20	=20	=20	=20	=20	=20	=20	=20	=20	=20	=20	=20	=20	=20	=20	=20	=20	=20	=20	=20	=20	=20	=20
2AA-/	-le-	.	(<4C/	-le-	.	(>4A-\	-le-	.	2AA-/	.	4c/	.	4a-\	.	2AA-/	.	2.A-\	.	4a-\	.	4cc\	.
.	.	.	4D-/)	.	.	4B-\)	.	.	.	.	4d-/	.	4b-\	.	.	.	.	.	4b-\	.	4dd-\	.
4AA-/	-i-	.	4Dn/	-i-	.	4Bn\	-i-	.	4AA-/	.	4dX/	.	4bX\	.	4A-\	.	.	.	4bX\	.	4dd\	.
!LO:LB:g=original	!	!	!	!	!	!	!	!	!LO:LB:g=original	!	!	!	!	!	!	!	!	!	!	!	!	!
=21	=21	=21	=21	=21	=21	=21	=21	=21	=21	=21	=21	=21	=21	=21	=21	=21	=21	=21	=21	=21	=21	=21
4AA-/	-son	.	4E-/	-son	.	4c\	-son	.	4AA-/	.	4e-/	.	4cc\	.	4AA-/	.	4A-\	.	4cc\	.	4ee-\	.
4r	.	.	8r	.	.	8r	.	.	4r	.	4r	.	4r	.	4r	.	4r	.	8r	.	8r	.
.	.	.	8A-\	Chri-	.	8c\	Chry-	.	.	.	.	.	.	.	.	.	.	.	8a-\L	.	8cc\L	.
4r	.	.	8B-\	-ste	.	8d-\	-ste	.	4r	.	4r	.	4r	.	4r	.	4r	.	8b-\	.	8dd-\	.
.	.	.	8c\	e-	.	8e-\	e-	.	.	.	.	.	.	.	.	.	.	.	8cc\J	.	8ee-\J	.
!	!	!	!LO:LB:g=original	!	!	!	!	!	!	!	!	!	!	!	!	!	!	!	!	!	!LO:LB:g=original	!
=22	=22	=22	=22	=22	=22	=22	=22	=22	=22	=22	=22	=22	=22	=22	=22	=22	=22	=22	=22	=22	=22	=22
4E-\	Chri-	.	(>8.c^>\L	-lei-	.	(>8.e-^\L	-lei-	.	2E-\	.	4r	.	4r	.	8E-\L	.	8E-\L	.	(>8.cc\L	.	(>8.ee-^<\L	.
.	.	.	.	.	.	.	.	.	.	.	.	.	.	.	8e-\J	.	8e-\J	.	.	.	.	.
.	.	.	32B-\LL	.	.	32d-\LL	.	.	.	.	.	.	.	.	.	.	.	.	32b-\LL	.	32dd-\LL	.
.	.	.	32A-\JJJ)	.	.	32c\JJJ)	.	.	.	.	.	.	.	.	.	.	.	.	32a-\JJJ	.	32cc\JJJ	.
!	!	!	!LO:TX:a:t=P:problem=tekst zamazany	!	!	!	!	!	!	!	!	!	!	!	!	!	!	!	!	!	!	!
4E-\	-ste	.	8G\	-son	.	8B-\	-son	.	.	.	2e-/	.	2b-\	.	4E-\	.	4E-\	.	8g\L)	.	8b-\L)	.
.	.	.	8G\	Chri-	.	8B-\	Chry-	.	.	.	.	.	.	.	.	.	.	.	8g\	.	8b-\	.
8r	.	.	8A-\	-ste	.	8c\	-ste	.	4r	.	.	.	.	.	4r	.	4r	.	8a-\	.	8cc\	.
8E-\	e-	.	8B-\	e	.	8d-\	e-	.	.	.	.	.	.	.	.	.	.	.	8b-\J	.	8dd-\J	.
!	!	!	!	!	!	!LO:LB:g=original	!	!	!	!	!	!	!	!LO:LB:g=original	!	!LO:LB:g=original	!	!	!	!	!	!
=23	=23	=23	=23	=23	=23	=23	=23	=23	=23	=23	=23	=23	=23	=23	=23	=23	=23	=23	=23	=23	=23	=23
!	!	!	!	!	!	!	!	!	!	!	!	!	!	!	!LO:TX:a:t=P:problem=mixed beam	!	!LO:TX:a:t=P:problem=mixed beam	!	!	!	!	!
4AA-/	-lei-	.	(>8.B-^>\L	lei-	.	(>8.d-^\L	-lei-	.	2AA-/	.	4r	.	4r	.	8AA-/L	.	8AA-/L	.	(>8.b-\L	.	(>8.dd-^<\L	.
.	.	.	.	.	.	.	.	.	.	.	.	.	.	.	8A-\J	.	8A-\J	.	.	.	.	.
.	.	.	32A-\LL	.	.	32c\LL	.	.	.	.	.	.	.	.	.	.	.	.	32a-\LL	.	32cc\LL	.
.	.	.	32E-\JJJ)	.	.	32B-\JJJ)	.	.	.	.	.	.	.	.	.	.	.	.	32e-\JJJ)	.	32b-\JJJ	.
4AA-/	-son	.	8C/	-son	.	8A-\	-son	.	.	.	2a-\	.	2cc\	.	4AA-/	.	4AA-/	.	8c/L	.	8a-\L)	.
.	.	.	8C/	Chri-	.	8A-\	Chry-	.	.	.	.	.	.	.	.	.	.	.	8c/	.	8a-\	.
4r	.	.	8G\	-ste	.	8B-\	-ste	.	4r	.	.	.	.	.	4r	.	4r	.	8g/	.	8b-\	.
.	.	.	8A-\	e-	.	8c\	e-	.	.	.	.	.	.	.	.	.	.	.	8a-/J	.	8cc\J	.
!	!	!	!LO:LB:g=original	!	!	!	!	!	!	!	!	!	!LO:LB:g=original	!	!	!	!	!	!	!	!	!
=24	=24	=24	=24	=24	=24	=24	=24	=24	=24	=24	=24	=24	=24	=24	=24	=24	=24	=24	=24	=24	=24	=24
(>4C\	le-	.	(<4E-/	-le-	.	8c\	-le-	.	4AA-/	.	4r	.	4r	.	4AA-/	.	4E-\	.	8a-\L	.	8cc\L	.
.	.	.	.	.	.	8B-\	-i-	.	.	.	.	.	.	.	.	.	.	.	8g\	.	8b-\	.
!	!	!	!	!	!	!	!	!	!LO:TX:a:t=cis	!	!	!	!	!	!	!	!	!	!	!	!	!
4D-\)	.	.	4F/)	.	.	8d-\	-son	.	4D-\	.	4A-/	.	4a-\	.	4D-/	.	4F\	.	8f\J	.	8dd-\	.
.	.	.	.	.	.	8B-\	e-	.	.	.	.	.	.	.	.	.	.	.	4d-/	.	8b-\	.
4E-\	-i-	.	4D-/	-i-	.	8F/	-le-	.	4E-\	.	4e-/	.	4b-\	.	4E-/	.	4G\	.	.	.	8f\	.
.	.	.	.	.	.	8G/	-i-	.	.	.	.	.	.	.	.	.	.	.	8d-/	.	8g\J	.
!LO:LB:g=original	!	!	!	!	!	!	!	!	!	!	!LO:LB:g=original	!	!	!	!	!	!	!	!LO:LB:g=original	!	!	!
=25	=25	=25	=25	=25	=25	=25	=25	=25	=25	=25	=25	=25	=25	=25	=25	=25	=25	=25	=25	=25	=25	=25
4AA-/	-son	.	4C/	-son	.	4A-\	-son	.	8AA-/	.	8c/	.	8a-\	.	8AA-/	.	8A-\	.	8c/	.	8a-\	.
.	.	.	.	.	.	.	.	.	8r	.	8r	.	8r	.	8r	.	8r	.	8r	.	8r	.
!	!	!	!	!	!	!LO:TX:a:i:t=Solo	!	!	!	!	!	!	!	!	!	!	!	!	!	!	!	!
4r	.	.	4r	.	.	4r	.	.	4AA-/	.	4c/	.	4a-\	.	4AA-/	.	4E-\	.	4cc\	.	4aa-\	.
4r	.	.	4r	.	.	8.c\	Chry-	.	4r	.	4r	.	4r	.	4r	.	4r	.	4r	.	4r	.
.	.	.	.	.	.	16B-\	-ste	.	.	.	.	.	.	.	.	.	.	.	.	.	.	.
!	!	!	!	!	!	!LO:LB:g=original	!	!	!	!	!	!	!	!	!	!	!	!	!	!	!	!
=26	=26	=26	=26	=26	=26	=26	=26	=26	=26	=26	=26	=26	=26	=26	=26	=26	=26	=26	=26	=26	=26	=26
!LO:TX:a:t=14.	!	!	!LO:TX:a:t=14.	!	!	!	!	!	!	!	!LO:TX:a:t=5.	!	!	!	!LO:TX:a:t=P:problem=mixed beam	!	!	!	!	!	!	!
!	!	!	!	!	!	!	!	!	!	!LO:DY:b:t=p.	!	!	!	!	!	!	!	!	!	!	!	!
!	!	!	!	!	!	!	!	!	!	!LO:DY:rj	!	!	!	!	!	!	!	!	!	!	!	!
!LO:N:vis=00	!	!	!LO:N:vis=00	!	!	!	!	!	!	!	!	!	!	!	!	!	!	!	!	!	!	!
!	!	!	!	!	!	!	!	!	!	!	!	!	!	!	!	!LO:DY:b:t=p.	!	!	!	!	!	!
!	!	!	!	!	!	!	!	!	!	!	!	!	!	!	!	!LO:DY:rj	!	!	!	!	!	!
!	!	!	!	!	!	!	!	!	!	!	!LO:N:vis=00	!	!	!	!	!	!	!	!	!	!	!
!	!	!	!	!	!	!	!	!	!	!	!	!	!	!	!	!	!	!	!	!	!	!LO:DY:b:t=p.
!	!	!	!	!	!	!	!	!	!	!	!	!	!	!	!	!	!	!	!	!LO:DY:rj	!	!LO:DY:rj
0.r	.	.	0.r	.	.	(>4.B-\	Chry-	.	4E-\	p	0.r	.	[>2.b-\	.	8EE-/L	p	8r	.	8r	p	8r	p
!	!	!	!	!	!	!	!	!	!	!	!	!	!	!	!	!	!	!LO:DY:rj	!	!	!	!
!	!	!	!	!	!	!	!	!	!	!	!	!	!	!	!	!	!	!LO:DY:b:t=p.	!	!	!	!
.	.	.	.	.	.	.	.	.	.	.	.	.	.	.	8E-\J	.	8G\	p	8e-/	.	8g'\	.
*	*	*	*	*	*	*	*	*	*	*	*	*	*	*	*tremolo	*	*	*	*	*	*	*
*	*	*	*	*	*	*	*	*	*	*	*	*	*	*	*	*	*tremolo	*	*	*	*	*
*	*	*	*	*	*	*	*	*	*	*	*	*	*	*	*	*	*	*	*tremolo	*	*	*
*	*	*	*	*	*	*	*	*	*	*	*	*	*	*	*	*	*	*	*	*	*tremolo	*
!	!	!	!	!	!	!	!	!	!	!	!	!	!	!	!	!	!	!	!LO:TX:a:t=P:problem=staccato czterokrotne	!	!LO:TX:a:t=P:problem=staccato czterokrotne	!
.	.	.	.	.	.	.	.	.	4r	.	.	.	.	.	8E-\L	.	8G\L	.	8e-'/L	.	8b-'\L	.
.	.	.	.	.	.	8c\)	.	.	.	.	.	.	.	.	8E-\	.	8G\	.	8e-'/	.	8b-'\	.
.	.	.	.	.	.	8d-\	-ste	.	4r	.	.	.	.	.	8E-\	.	8G\	.	8e-'/	.	8b-'\	.
.	.	.	.	.	.	8e-\	e-	.	.	.	.	.	.	.	8E-\J	.	8G\J	.	8e-'/J	.	8b-'\J	.
!	!	!	!	!	!	!	!	!	!	!	!	!	!	!	!	!	!	!	!	!	!LO:LB:g=original	!
=27	=27	=27	=27	=27	=27	=27	=27	=27	=27	=27	=27	=27	=27	=27	=27	=27	=27	=27	=27	=27	=27	=27
!	!	!	!	!	!	!	!	!	!	!	!	!	!	!	!LO:TX:a:t=P:problem=mixed beam	!	!	!	!	!	!	!
.	.	.	.	.	.	(>8.e-\L	-lei-	.	4E-\	.	.	.	2.b-\_>	.	8FF/L	.	8r	.	8r	.	8r	.
.	.	.	.	.	.	.	.	.	.	.	.	.	.	.	8F\J	.	8B-\	.	8d/	.	8a-\	.
.	.	.	.	.	.	16d-\Jk)	.	.	.	.	.	.	.	.	.	.	.	.	.	.	.	.
*	*	*	*	*	*	*	*	*	*	*	*	*	*	*	*	*	*	*	*Xtremolo	*	*	*
*	*	*	*	*	*	*	*	*	*	*	*	*	*	*	*Xtremolo	*	*	*	*	*	*	*
.	.	.	.	.	.	4d-\	-son	.	4r	.	.	.	.	.	8F\L	.	8B-\L	.	8d/L	.	8a-\L	.
.	.	.	.	.	.	.	.	.	.	.	.	.	.	.	8F\	.	8B-\	.	8d/	.	8a-\	.
.	.	.	.	.	.	8d-\	Chry-	.	4r	.	.	.	.	.	8E-\	.	8B-\	.	8e-/	.	8a-\	.
.	.	.	.	.	.	8e-\	-ste	.	.	.	.	.	.	.	8E-\J	.	8B-\J	.	8e-/J	.	8a-\J	.
!	!	!	!	!	!	!	!	!	!LO:LB:g=original	!	!	!	!	!	!	!	!	!	!	!	!	!
=28	=28	=28	=28	=28	=28	=28	=28	=28	=28	=28	=28	=28	=28	=28	=28	=28	=28	=28	=28	=28	=28	=28
*	*	*	*	*	*	*	*	*	*	*	*	*	*	*	*tremolo	*	*	*	*	*	*	*
.	.	.	.	.	.	(>4.f\	Chry-	.	4Dn\	.	.	.	2.b-\]	.	8Dn\L	.	8r	.	8r	.	8r	.
.	.	.	.	.	.	.	.	.	.	.	.	.	.	.	8Dn\	.	8dn\	.	8f/	.	8a-\	.
*	*	*	*	*	*	*	*	*	*	*	*	*	*	*	*	*	*	*	*tremolo	*	*	*
!	!	!	!	!	!	!	!	!	!	!	!	!	!	!	!	!	!	!	!LO:TX:a:t=P:problem=staccato czterokrotne	!	!	!
.	.	.	.	.	.	.	.	.	4r	.	.	.	.	.	8Dn\	.	8d\L	.	8f'/L	.	8a-\L	.
.	.	.	.	.	.	8d-\)	.	.	.	.	.	.	.	.	8Dn\	.	8d\	.	8f'/	.	8a-\	.
.	.	.	.	.	.	8c\	-ste	.	4r	.	.	.	.	.	8Dn\	.	8d\	.	8f'/	.	8a-\	.
.	.	.	.	.	.	8B-\	e-	.	.	.	.	.	.	.	8Dn\J	.	8d\J	.	8f'/J	.	8a-\J	.
*	*	*	*	*	*	*	*	*	*	*	*	*	*	*	*	*	*	*	*	*	*Xtremolo	*
*	*	*	*	*	*	*	*	*	*	*	*	*	*	*	*	*	*	*	*Xtremolo	*	*	*
*	*	*	*	*	*	*	*	*	*	*	*	*	*	*	*	*	*Xtremolo	*	*	*	*	*
*	*	*	*	*	*	*	*	*	*	*	*	*	*	*	*Xtremolo	*	*	*	*	*	*	*
=29	=29	=29	=29	=29	=29	=29	=29	=29	=29	=29	=29	=29	=29	=29	=29	=29	=29	=29	=29	=29	=29	=29
.	.	.	.	.	.	(>8.B-\L	-ley-	.	4E-\	.	.	.	4b-\	.	4E-\	.	4e-\	.	8.g/L	.	8.b-\L	.
.	.	.	.	.	.	16A-\Jk)	.	.	.	.	.	.	.	.	.	.	.	.	16f/Jk	.	16a-\Jk	.
.	.	.	.	.	.	8G\	-son	.	4r	.	.	.	4r	.	4r	.	8E-\	.	8e-/	.	8g\	.
.	.	.	.	.	.	8B-\	Chry-	.	.	.	.	.	.	.	.	.	8r	.	8r	.	8r	.
.	.	.	.	.	.	8e-\	-ste	.	4r	.	.	.	4r	.	(>4G^<\	.	(>4G^<\	.	[<4e-^>/	.	4b-^\	.
.	.	.	.	.	.	8dn\	e-	.	.	.	.	.	.	.	.	.	.	.	.	.	.	.
!	!	!	!	!	!	!LO:LB:g=original	!	!	!	!	!	!	!	!	!	!	!	!	!	!	!	!
!	!	!	!	!	!	!	!	!	!	!	!	!	!	!	!LO:LB:g=original	!	!LO:LB:g=original	!	!	!	!	!
=30	=30	=30	=30	=30	=30	=30	=30	=30	=30	=30	=30	=30	=30	=30	=30	=30	=30	=30	=30	=30	=30	=30
!	!	!	!	!	!	!	!	!	!LO:N:vis=0	!	!	!	!	!	!	!	!	!	!	!	!	!
!LO:N:vis=00	!	!	!LO:N:vis=00	!	!	!	!	!	!	!	!	!	!	!	!	!	!	!	!	!	!	!
0.r	.	.	0.r	.	.	(>8.Bn\L	-ley-	.	1.r	.	2.r	.	2.r	.	4A-\)	.	4A-\)	.	4e-/]	.	(>8bX\L	.
.	.	.	.	.	.	.	.	.	.	.	.	.	.	.	.	.	.	.	.	.	8cc\J)	.
.	.	.	.	.	.	16c\Jk)	.	.	.	.	.	.	.	.	.	.	.	.	.	.	.	.
!	!	!	!	!	!	!	!	!	!LO:TX:a:t=2	!	!	!	!	!	!	!	!	!	!	!	!	!
!	!	!	!	!	!	!	!	!	!	!	!	!	!LO:TX:a:t=1.	!	!	!	!	!	!	!	!	!
.	.	.	.	.	.	8c\	-son	.	.	.	.	.	.	.	4r	.	4r	.	8e-/L	.	8cc\	.
.	.	.	.	.	.	8c\	Chry-	.	.	.	.	.	.	.	.	.	.	.	8eX/J	.	8r	.
.	.	.	.	.	.	8f\	-ste	.	.	.	.	.	.	.	(>4An^<\	.	(>4An^<\	.	[<4f^>/	.	4cc^\	.
.	.	.	.	.	.	8e-\	e-	.	.	.	.	.	.	.	.	.	.	.	.	.	.	.
!	!	!	!	!	!	!	!	!	!	!	!	!	!	!	!	!	!	!	!LO:LB:g=original	!	!	!
=31	=31	=31	=31	=31	=31	=31	=31	=31	=31	=31	=31	=31	=31	=31	=31	=31	=31	=31	=31	=31	=31	=31
.	.	.	.	.	.	(>8.c#X\L	-ley-	.	.	.	4r	.	4r	.	4B-\)	.	4B-\)	.	4f/]	.	(>8cc#X\L	.
.	.	.	.	.	.	.	.	.	.	.	.	.	.	.	.	.	.	.	.	.	8dd\J)	.
.	.	.	.	.	.	16dn\Jk)	.	.	.	.	.	.	.	.	.	.	.	.	.	.	.	.
.	.	.	.	.	.	8d\	-son	.	.	.	8r	.	8r	.	8r	.	8r	.	8r	.	8dd'\	.
.	.	.	.	.	.	8d\	Chry-	.	.	.	8a-\L	.	8b-\L	.	8A-X\L	.	8A-X\L	.	8b-\L	.	8dd\L	.
.	.	.	.	.	.	8e-\	-ste	.	.	.	8gn\	.	8b-\	.	8G\	.	8G\	.	8b-\	.	8ee-\	.
.	.	.	.	.	.	8f\	e-	.	.	.	8f\J	.	8b-\J	.	8F\J	.	8F\J	.	8b-\J	.	8ff\J	.
!	!	!	!	!	!	!	!	!	!	!	!	!	!LO:LB:g=original	!	!	!	!	!	!	!	!	!
=32	=32	=32	=32	=32	=32	=32	=32	=32	=32	=32	=32	=32	=32	=32	=32	=32	=32	=32	=32	=32	=32	=32
.	.	.	.	.	.	4.g\	-le-	.	4E-\	.	4e-/	.	4b-\	.	4E-\	.	4E-\	.	4b-\	.	4gg\	.
.	.	.	.	.	.	.	.	.	4r	.	4r	.	4r	.	4r	.	4r	.	4r	.	4r	.
.	.	.	.	.	.	8dn\	-i-	.	.	.	.	.	.	.	.	.	.	.	.	.	.	.
.	.	.	.	.	.	8e-\	-son	.	4r	.	4r	.	4r	.	4r	.	4r	.	4r	.	4r	.
.	.	.	.	.	.	8Bn\	e-	.	.	.	.	.	.	.	.	.	.	.	.	.	.	.
!	!	!	!	!	!	!LO:LB:g=original	!	!	!	!	!	!	!	!	!	!	!	!	!	!	!LO:LB:g=original	!
=33	=33	=33	=33	=33	=33	=33	=33	=33	=33	=33	=33	=33	=33	=33	=33	=33	=33	=33	=33	=33	=33	=33
.	.	.	.	.	.	4.c\	-le-	.	2AA-/	.	2a-\	.	2cc\	.	2A-\	.	2c\	.	2f/	.	2a-\	.
.	.	.	.	.	.	8G\	-i-	.	.	.	.	.	.	.	.	.	.	.	.	.	.	.
.	.	.	.	.	.	8A-\	-son	.	4r	.	4r	.	4r	.	4r	.	4r	.	4r	.	4r	.
.	.	.	.	.	.	8F\	e-	.	.	.	.	.	.	.	.	.	.	.	.	.	.	.
=34	=34	=34	=34	=34	=34	=34	=34	=34	=34	=34	=34	=34	=34	=34	=34	=34	=34	=34	=34	=34	=34	=34
!LO:N:vis=00	!	!	!LO:N:vis=00	!	!	!	!	!	!	!	!	!	!	!	!	!	!	!	!	!	!	!
0.r	.	.	0.r	.	.	(<8D-/L	-lei-	.	4BB-/	.	2b-\	.	2b-\	.	2B-\	.	2B-\	.	2.d/	.	2f/	.
.	.	.	.	.	.	8F/J)	.	.	.	.	.	.	.	.	.	.	.	.	.	.	.	.
.	.	.	.	.	.	(>8A-\L	-son	.	4r	.	.	.	.	.	.	.	.	.	.	.	.	.
.	.	.	.	.	.	8c\J)	.	.	.	.	.	.	.	.	.	.	.	.	.	.	.	.
.	.	.	.	.	.	(>8B-\L	e-	.	4BB-/	.	4b-\	.	4b-\	.	4BB-/	.	4A-X\	.	.	.	4f/	.
.	.	.	.	.	.	8A-\J)	.	.	.	.	.	.	.	.	.	.	.	.	.	.	.	.
=35	=35	=35	=35	=35	=35	=35	=35	=35	=35	=35	=35	=35	=35	=35	=35	=35	=35	=35	=35	=35	=35	=35
.	.	.	.	.	.	(>8.B-\L	-ley-	.	4E-\	.	2e-/	.	2b-\	.	2E-\	.	2G\	.	8.g/L	.	8.b-\L	.
.	.	.	.	.	.	16A-\Jk)	.	.	.	.	.	.	.	.	.	.	.	.	16f/Jk	.	16a-\Jk	.
.	.	.	.	.	.	8G\	-son	.	4r	.	.	.	.	.	.	.	.	.	4e-/	.	4g\	.
.	.	.	.	.	.	8B-\	Chry-	.	.	.	.	.	.	.	.	.	.	.	.	.	.	.
.	.	.	.	.	.	8e-\	-ste	.	4r	.	4r	.	4r	.	4r	.	4r	.	4r	.	4r	.
.	.	.	.	.	.	8f\	e-	.	.	.	.	.	.	.	.	.	.	.	.	.	.	.
!	!	!	!	!	!	!LO:LB:g=original	!	!	!LO:LB:g=original	!	!	!	!	!	!	!	!	!	!	!	!	!
=36	=36	=36	=36	=36	=36	=36	=36	=36	=36	=36	=36	=36	=36	=36	=36	=36	=36	=36	=36	=36	=36	=36
.	.	.	.	.	.	4.g\	-le-	.	4.E-^>\	.	4.e-^>/	.	4.b-^\	.	4.E-^<\	.	4.G^<\	.	4.b-^\	.	4.gg^<\	.
.	.	.	.	.	.	8dn\	-i-	.	8r	.	8r	.	8r	.	8r	.	8r	.	8r	.	8r	.
.	.	.	.	.	.	8e-\	-son	.	4r	.	4r	.	4r	.	4r	.	4r	.	4r	.	4r	.
.	.	.	.	.	.	8Bn\	e-	.	.	.	.	.	.	.	.	.	.	.	.	.	.	.
!	!	!	!	!	!	!	!	!	!	!	!LO:LB:g=original	!	!	!	!LO:LB:g=original	!	!	!	!	!	!	!
=37	=37	=37	=37	=37	=37	=37	=37	=37	=37	=37	=37	=37	=37	=37	=37	=37	=37	=37	=37	=37	=37	=37
.	.	.	.	.	.	4.c\	-le-	.	4AA-/	.	2a-\	.	2cc\	.	2AA-/	.	2A-\	.	2f/	.	2a-\	.
.	.	.	.	.	.	.	.	.	4r	.	.	.	.	.	.	.	.	.	.	.	.	.
.	.	.	.	.	.	8G\	-i-	.	.	.	.	.	.	.	.	.	.	.	.	.	.	.
.	.	.	.	.	.	(>12B-\L	-son	.	4r	.	4r	.	4r	.	4r	.	4r	.	4r	.	4r	.
.	.	.	.	.	.	12A-\J)	.	.	.	.	.	.	.	.	.	.	.	.	.	.	.	.
.	.	.	.	.	.	12F'\	e-	.	.	.	.	.	.	.	.	.	.	.	.	.	.	.
!	!	!	!	!	!	!	!	!	!	!	!	!	!	!	!	!	!LO:LB:g=original	!	!	!	!	!
=38	=38	=38	=38	=38	=38	=38	=38	=38	=38	=38	=38	=38	=38	=38	=38	=38	=38	=38	=38	=38	=38	=38
!LO:N:vis=0	!	!	!LO:N:vis=0	!	!	!	!	!	!	!	!	!	!	!	!	!	!	!	!	!	!	!
1.r	.	.	1.r	.	.	(<4E-/	-ley-	.	4BB-/	.	2.b-\	.	2.b-\	.	2BB-/	.	2B-\	.	4e-/	.	4g\	.
.	.	.	.	.	.	4G/)	.	.	4r	.	.	.	.	.	.	.	.	.	4g/	.	4b-\	.
.	.	.	.	.	.	4F/	-i-	.	4BB-/	.	.	.	.	.	4BB-/	.	4dn\	.	4f/	.	4a-\	.
!	!	!	!	!	!	!	!	!	!	!	!	!	!	!	!	!	!	!	!LO:LB:g=original	!	!	!
=39	=39	=39	=39	=39	=39	=39	=39	=39	=39	=39	=39	=39	=39	=39	=39	=39	=39	=39	=39	=39	=39	=39
.	.	.	.	.	.	4E-/	-son	.	4E-\	.	4e-/	.	4b-\	.	4E-\	.	4e-\	.	8e-/L	.	8g\L	.
.	.	.	.	.	.	.	.	.	.	.	.	.	.	.	.	.	.	.	8e-/	.	8g\	.
.	.	.	.	.	.	4r	.	.	4r	.	8r	.	8r	.	8r	.	8r	.	8g/	.	8b-\	.
.	.	.	.	.	.	.	.	.	.	.	8b-\L	.	8dd-\L	.	8B-\L	.	8d-X\L	.	8b-/	.	8dd-X\	.
.	.	.	.	.	.	4r	.	.	4r	.	8a-\	.	8cc\	.	8A-\	.	8c\	.	8a-/	.	8cc\	.
!	!	!	!	!	!	!	!	!	!	!	!	!	!	!	!	!	!	!	!	!	!LO:TX:a:t=P:problem=nuta dopisana niebieską kredką	!
.	.	.	.	.	.	.	.	.	.	.	8e-\J	.	8b-\J	.	8E-\J	.	8B-\J	.	8g/J	.	8b-\J	.
!	!	!	!	!	!	!LO:LB:g=original	!	!	!	!	!	!	!LO:LB:g=original	!	!	!	!	!	!	!	!	!
=40	=40	=40	=40	=40	=40	=40	=40	=40	=40	=40	=40	=40	=40	=40	=40	=40	=40	=40	=40	=40	=40	=40
!	!	!	!	!	!	!	!	!	!	!LO:DY:rj	!	!	!	!	!	!	!	!	!	!	!	!
!	!	!LO:DY:b:t=p.	!	!	!LO:DY:b:t=p.	!	!	!	!	!	!	!	!	!	!	!	!	!	!	!	!	!
!	!	!LO:DY:rj	!	!	!LO:DY:rj	!	!	!	!	!	!	!	!	!	!	!	!	!	!	!	!	!
!	!	!	!	!	!	!	!	!	!	!	!	!	!	!	!	!LO:DY:b:t=p.	!	!	!	!	!	!
!	!	!	!	!	!	!	!	!	!	!	!	!LO:DY:rj	!	!LO:DY:rj	!	!LO:DY:rj	!	!LO:DY:rj	!	!LO:DY:rj	!	!LO:DY:rj
2AA-/	Ky-	p	2C/	Ky-	p	2A-\	Ky-	.	2AA-/	p	2c/	p	2a-\	p	2AA-/	p	2c\	p	8r	p	8r	p
.	.	.	.	.	.	.	.	.	.	.	.	.	.	.	.	.	.	.	(<8E-/L	.	(<8A-/L	.
.	.	.	.	.	.	.	.	.	.	.	.	.	.	.	.	.	.	.	8A-/	.	8c/	.
.	.	.	.	.	.	.	.	.	.	.	.	.	.	.	.	.	.	.	8c/	.	8e-/	.
4AA-/	-ri-	.	4C/	-ri-	.	4E-/	-ri-	.	4r	.	4c/	.	4e-\	.	4A-\	.	4e-\	.	8e-/	.	8a-/	.
.	.	.	.	.	.	.	.	.	.	.	.	.	.	.	.	.	.	.	8a-/J)	.	8cc/J)	.
!	!	!	!	!	!	!	!	!	!	!	!	!	!	!	!	!	!	!	!	!	!LO:LB:g=original	!
=41	=41	=41	=41	=41	=41	=41	=41	=41	=41	=41	=41	=41	=41	=41	=41	=41	=41	=41	=41	=41	=41	=41
[<2AA-/	-e-	.	(<2E-/	-e-	.	(>2c\	-e-	.	2AA-/	.	2e-/	.	2cc\	.	2AA-/	.	2A-\	.	8r	.	8r	.
.	.	.	.	.	.	.	.	.	.	.	.	.	.	.	.	.	.	.	(8A-/L	.	(<8c/L	.
.	.	.	.	.	.	.	.	.	.	.	.	.	.	.	.	.	.	.	8c/	.	8e-/	.
.	.	.	.	.	.	.	.	.	.	.	.	.	.	.	.	.	.	.	8e-/	.	8a-/	.
4AA-/]	.	.	4C/)	.	.	4A-\)	.	.	4r	.	8c/L	.	4a-\	.	4A-\	.	4c\	.	8a-/	.	8cc/	.
.	.	.	.	.	.	.	.	.	.	.	8A-/J	.	.	.	.	.	.	.	8cc/J)	.	8ee-/J)	.
!	!	!	!LO:LB:g=original	!	!	!	!	!	!	!	!	!	!	!	!	!	!	!	!	!	!	!
=42	=42	=42	=42	=42	=42	=42	=42	=42	=42	=42	=42	=42	=42	=42	=42	=42	=42	=42	=42	=42	=42	=42
2E-\	-le-	.	(<4BB-/	-le-	.	(>4G\	-le-	.	2E-\	.	2.E-/	.	2.e-/	.	4G\	.	4B-\	.	4b-\	.	4gg\	.
.	.	.	4BBn/)	.	.	4A-\)	.	.	.	.	.	.	.	.	4A-\	.	4c-X\	.	4cc-X\	.	4aa-\	.
4E-\	-i-	.	4C/	-i-	.	4An\	-i-	.	4E-\	.	.	.	.	.	4An\	.	4cn\	.	4cc\	.	4aa\	.
!LO:LB:g=original	!	!	!	!	!	!	!	!	!LO:LB:g=original	!	!	!	!	!	!	!	!	!	!	!	!	!
=43	=43	=43	=43	=43	=43	=43	=43	=43	=43	=43	=43	=43	=43	=43	=43	=43	=43	=43	=43	=43	=43	=43
4E-\	-son	.	4D-/	-son	.	4B-\	-son	.	4E-\	.	4E-/	.	4e-/	.	8B-\L	.	8d-\L	.	16dd-'\LL	.	16bb-'\LL	.
.	.	.	.	.	.	.	.	.	.	.	.	.	.	.	.	.	.	.	16dd-'\	.	16bb-'\	.
.	.	.	.	.	.	.	.	.	.	.	.	.	.	.	8A-\	.	8c\	.	16cc'\	.	16aa-'\	.
.	.	.	.	.	.	.	.	.	.	.	.	.	.	.	.	.	.	.	16cc'\JJ	.	16aa-'\JJ	.
4r	.	.	4r	.	.	4r	.	.	4r	.	4r	.	4r	.	8G\	.	8B-\	.	16b-'\LL	.	16gg'\LL	.
.	.	.	.	.	.	.	.	.	.	.	.	.	.	.	.	.	.	.	16b-'\	.	16gg'\	.
.	.	.	.	.	.	.	.	.	.	.	.	.	.	.	8F\J	.	8A-\J	.	16a-'\	.	16ff'\	.
.	.	.	.	.	.	.	.	.	.	.	.	.	.	.	.	.	.	.	16a-'\JJ	.	16ff'\JJ	.
4r	.	.	4r	.	.	4r	.	.	4r	.	4r	.	4r	.	4E-\	.	4G\	.	4g/	.	4ee-'\	.
=44	=44	=44	=44	=44	=44	=44	=44	=44	=44	=44	=44	=44	=44	=44	=44	=44	=44	=44	=44	=44	=44	=44
2E-\	Ky-	.	2G/	Ky-	.	2B-\	Ky-	.	2E-\	.	2e-/	.	2b-\	.	2EE-/	.	2B-\	.	8r	.	8r	.
.	.	.	.	.	.	.	.	.	.	.	.	.	.	.	.	.	.	.	(<8E-/L	.	(<8G/L	.
.	.	.	.	.	.	.	.	.	.	.	.	.	.	.	.	.	.	.	8G/	.	8B-/	.
.	.	.	.	.	.	.	.	.	.	.	.	.	.	.	.	.	.	.	8B-/	.	8e-/	.
4E-\	-ri-	.	4E-/	-ri-	.	4E-/	-ri-	.	4r	.	4e-/	.	4e-\	.	4E-\	.	4d-\	.	8e-/	.	8g/	.
.	.	.	.	.	.	.	.	.	.	.	.	.	.	.	.	.	.	.	8g/J)	.	8b-/J)	.
!	!	!	!	!	!	!LO:LB:g=original	!	!	!	!	!	!	!	!	!LO:LB:g=original	!	!	!	!LO:LB:g=original	!	!	!
=45	=45	=45	=45	=45	=45	=45	=45	=45	=45	=45	=45	=45	=45	=45	=45	=45	=45	=45	=45	=45	=45	=45
2.E-\	-e-	.	(>2B-\	-e-	.	(>2d-\	-e-	.	2E-\	.	2b-\	.	2dd-\	.	2EE-/	.	2G\	.	8r	.	8r	.
.	.	.	.	.	.	.	.	.	.	.	.	.	.	.	.	.	.	.	(<8G/L	.	(<8B-/L	.
.	.	.	.	.	.	.	.	.	.	.	.	.	.	.	.	.	.	.	8B-/	.	8e-/	.
.	.	.	.	.	.	.	.	.	.	.	.	.	.	.	.	.	.	.	8e-/	.	8g/	.
.	.	.	8A-\L	.	.	8c\L	.	.	4r	.	8a-\L	.	8cc\L	.	4E-\	.	4B-\	.	8g/	.	8b-/	.
.	.	.	8E-\J)	.	.	8B-\J)	.	.	.	.	8e-\J	.	8b-\J	.	.	.	.	.	8b-/J)	.	8ee-/J)	.
!	!	!	!	!	!	!	!	!	!	!	!LO:LB:g=original	!	!	!	!	!	!LO:LB:g=original	!	!	!	!	!
=46	=46	=46	=46	=46	=46	=46	=46	=46	=46	=46	=46	=46	=46	=46	=46	=46	=46	=46	=46	=46	=46	=46
2AA-/	-le-	.	(<4C/	-le-	.	(>4A-\	-le-	.	2AA-/	.	4c/	.	4a-\	.	2AA-/	.	2.A-\	.	4a-\	.	4cc\	.
.	.	.	4D-/)	.	.	4B-\)	.	.	.	.	4d-/	.	4b-\	.	.	.	.	.	4b-\	.	4dd-\	.
4AA-/	-i-	.	4Dn/	-i-	.	4Bn\	-i-	.	4AA-/	.	4dX/	.	4bX\	.	4A-\	.	.	.	4bX\	.	4dd\	.
!	!	!	!LO:LB:g=original	!	!	!	!	!	!	!	!	!	!	!	!	!	!	!	!	!	!	!
=47	=47	=47	=47	=47	=47	=47	=47	=47	=47	=47	=47	=47	=47	=47	=47	=47	=47	=47	=47	=47	=47	=47
4AA-/	-son	.	4E-/	-son	.	4c\	-son	.	4AA-/	.	4e-/	.	4cc\	.	4AA-/	.	4A-\	.	4cc\	.	4ee-\	.
4r	.	.	8r	.	.	8r	.	.	4r	.	4r	.	4r	.	4r	.	4r	.	8r	.	8r	.
.	.	.	8A-\	Chri-	.	8c\	Chry-	.	.	.	.	.	.	.	.	.	.	.	8a-\L	.	8cc\L	.
4r	.	.	8B-\	-ste	.	8d-\	-ste	.	4r	.	4r	.	4r	.	4r	.	4r	.	8b-\	.	8dd-\	.
.	.	.	8c\	e-	.	8e-\	e-	.	.	.	.	.	.	.	.	.	.	.	8cc\J	.	8ee-\J	.
!LO:LB:g=original	!	!	!	!	!	!	!	!	!	!	!	!	!	!	!	!	!	!	!	!	!	!
!	!	!	!	!	!	!	!	!	!	!	!	!	!LO:LB:g=original	!	!	!	!	!	!	!	!LO:LB:g=original	!
=48	=48	=48	=48	=48	=48	=48	=48	=48	=48	=48	=48	=48	=48	=48	=48	=48	=48	=48	=48	=48	=48	=48
4E-\	Chri-	.	(>8.c^>\L	-lei-	.	(>8.e-^\L	-lei-	.	2E-\	.	4r	.	4r	.	8E-\L	.	8E-\L	.	(>8.cc^<\L	.	(>8.ee-^<\L	.
.	.	.	.	.	.	.	.	.	.	.	.	.	.	.	8e-\J	.	8e-\J	.	.	.	.	.
.	.	.	32B-\LL	.	.	32d-\LL	.	.	.	.	.	.	.	.	.	.	.	.	32b-\LL	.	32dd-\LL	.
.	.	.	32A-\JJJ)	.	.	32c\JJJ)	.	.	.	.	.	.	.	.	.	.	.	.	32a-\JJJ	.	32cc\JJJ	.
4E-\	-ste	.	8G\	-son	.	8B-\	-son	.	.	.	2e-/	.	2b-\	.	4E-\	.	4E-\	.	8g\L)	.	8b-\L)	.
.	.	.	8G\	Chri-	.	8B-\	Chry-	.	.	.	.	.	.	.	.	.	.	.	8g\	.	8b-'\	.
8r	.	.	8A-\	-ste	.	8c\	-ste	.	4r	.	.	.	.	.	4r	.	4r	.	8a-\	.	8cc'\	.
8E-\	e-	.	8B-\	e-	.	8d-\	e-	.	.	.	.	.	.	.	.	.	.	.	8b-\J	.	8dd-'\J	.
!	!	!	!	!	!	!LO:LB:g=original	!	!	!	!	!	!	!	!	!	!	!	!	!	!	!	!
=49	=49	=49	=49	=49	=49	=49	=49	=49	=49	=49	=49	=49	=49	=49	=49	=49	=49	=49	=49	=49	=49	=49
!	!	!	!	!	!	!	!	!	!	!	!	!	!	!	!LO:TX:a:t=P:problem=mixed beam	!	!LO:TX:a:t=P:problem=mixed beam	!	!	!	!	!
4AA-/	-lei-	.	(>8.B-^>\L	-lei-	.	(>8.d-^\L	-lei-	.	2AA-/	.	4r	.	4r	.	8AA-/L	.	8AA-/L	.	(>8.b-^<\L	.	(>8.dd-^<\L	.
.	.	.	.	.	.	.	.	.	.	.	.	.	.	.	8A-\J	.	8A-\J	.	.	.	.	.
.	.	.	32A-\LL	.	.	32c\LL	.	.	.	.	.	.	.	.	.	.	.	.	32a-\LL	.	32cc\LL	.
.	.	.	32E-\JJJ)	.	.	32B-\JJJ)	.	.	.	.	.	.	.	.	.	.	.	.	32e-\JJJ)	.	32b-\JJJ	.
4AA-/	-son	.	8C/	-son	.	8A-\	-son	.	.	.	2a-\	.	2cc\	.	4E-\	.	4AA-/	.	8c/L	.	8a-\L)	.
.	.	.	8A-\	Chri-	.	8A-\	Chry-	.	.	.	.	.	.	.	.	.	.	.	8c/	.	8a-'\	.
4r	.	.	8G\	-ste	.	8B-\	-ste	.	4r	.	.	.	.	.	4r	.	4r	.	8g/	.	8b-'\	.
.	.	.	8A-\	e-	.	8c\	e-	.	.	.	.	.	.	.	.	.	.	.	8a-/J	.	8cc'\J	.
!	!	!	!LO:LB:g=original	!	!	!	!	!	!LO:LB:g=original	!	!	!	!	!	!	!	!	!	!	!	!	!
=50	=50	=50	=50	=50	=50	=50	=50	=50	=50	=50	=50	=50	=50	=50	=50	=50	=50	=50	=50	=50	=50	=50
(>4C\	le-	.	(<4E-/	-le-	.	8c\	-le-	.	4AA-/	.	4r	.	4r	.	4AA-/	.	4E-\	.	8a-\L	.	8cc\L	.
.	.	.	.	.	.	8B-\	-i-	.	.	.	.	.	.	.	.	.	.	.	8g\J	.	8b-\	.
4D-\)	.	.	4F/)	.	.	8d-\	-son	.	4D-\	.	4b-\	.	4dd-\	.	4D-\	.	4F\	.	8f/	.	8dd-\	.
.	.	.	.	.	.	8B-\	e-	.	.	.	.	.	.	.	.	.	.	.	4d-/	.	8b-\	.
4E-\	-i-	.	4D-/	-i-	.	8F/	-le-	.	4E-\	.	4e-/	.	4b-\	.	4E-\	.	4G\	.	.	.	8f\	.
.	.	.	.	.	.	8G/	-i-	.	.	.	.	.	.	.	.	.	.	.	8d-/	.	8g\J	.
!	!	!	!	!	!	!	!	!	!	!	!	!	!	!	!	!	!	!	!LO:LB:g=original	!	!	!
=51	=51	=51	=51	=51	=51	=51	=51	=51	=51	=51	=51	=51	=51	=51	=51	=51	=51	=51	=51	=51	=51	=51
4AA-/	-son	.	4C/	-son	.	4A-\	-son	.	4AA-/	.	4c/	.	4a-\	.	4AA-/	.	4A-\	.	4c/	.	4a-\	.
4r	.	.	4r	.	.	4r	.	.	4r	.	8r	.	8r	.	4r	.	8r	.	8r	.	8r	.
.	.	.	.	.	.	.	.	.	.	.	8a-\L	.	8a-\L	.	.	.	8A-\L	.	8a-/L	.	8a-/L	.
4r	.	.	4r	.	.	4r	.	.	4r	.	8e-\	.	8e-\	.	4r	.	8E-\	.	8e-/	.	8e-/	.
.	.	.	.	.	.	.	.	.	.	.	8c\J	.	8c\J	.	.	.	8C\J	.	8c/J	.	8c/J	.
!LO:LB:g=original	!	!	!	!	!	!LO:LB:g=original	!	!	!	!	!	!	!	!	!LO:LB:g=original	!	!	!	!	!	!	!
=52	=52	=52	=52	=52	=52	=52	=52	=52	=52	=52	=52	=52	=52	=52	=52	=52	=52	=52	=52	=52	=52	=52
!LO:TX:a:t=2	!	!	!LO:TX:a:t=2.	!	!	!LO:TX:a:t=2.	!	!	!	!	!	!	!	!	!	!	!	!	!	!	!	!
!LO:N:vis=0	!	!	!LO:N:vis=0	!	!	!LO:N:vis=0	!	!	!	!	!	!	!	!	!	!	!	!	!	!	!	!
1.r	.	.	1.r	.	.	1.r	.	.	2.AA-/	.	2.A-/	.	2.e-/	.	2.AA-/	.	8AA-/L	.	2.c/	.	8A-'/L	.
.	.	.	.	.	.	.	.	.	.	.	.	.	.	.	.	.	8C/	.	.	.	8c'/	.
.	.	.	.	.	.	.	.	.	.	.	.	.	.	.	.	.	8E-/	.	.	.	8e-'/	.
.	.	.	.	.	.	.	.	.	.	.	.	.	.	.	.	.	8A-/	.	.	.	8a-'/	.
.	.	.	.	.	.	.	.	.	.	.	.	.	.	.	.	.	8c/	.	.	.	8cc'/	.
.	.	.	.	.	.	.	.	.	.	.	.	.	.	.	.	.	8e-/J	.	.	.	8ee-'/J	.
!	!	!	!	!	!	!	!	!	!	!	!	!	!	!	!	!	!LO:LB:g=original	!	!	!	!	!
=53	=53	=53	=53	=53	=53	=53	=53	=53	=53	=53	=53	=53	=53	=53	=53	=53	=53	=53	=53	=53	=53	=53
.	.	.	.	.	.	.	.	.	4A-\	.	4A-/	.	4e-/	.	4AA-/	.	4A-\	.	4c/	.	4aa-\	.
.	.	.	.	.	.	.	.	.	4E-\	.	4c/	.	4a-\	.	4AA-/	.	4E-\	.	4c/	.	4a-\	.
.	.	.	.	.	.	.	.	.	4C\	.	4c/	.	4a-\	.	4AA-/	.	4E-\	.	4c/	.	4a-\	.
=54	=54	=54	=54	=54	=54	=54	=54	=54	=54	=54	=54	=54	=54	=54	=54	=54	=54	=54	=54	=54	=54	=54
!	!	!	!LO:TX:a:t=P:problem=nie wyświetla się fermata nad pauzą	!	!	!	!	!	!	!	!	!	!	!	!	!	!	!	!	!	!	!
!LO:TX:a:t=P:problem=nie wyświetla się fermata nad pauzą	!	!	!	!	!	!LO:TX:a:t=P:problem=nie wyświetla się fermata nad pauzą	!	!	!	!	!	!	!	!	!	!	!	!	!	!	!	!
2.r;	.	.	2.r;	.	.	2.r;>	.	.	2.AA-;>/	.	2.c;/	.	2.a-;\	.	2.AA-;/	.	2.E-;\	.	2.c;/	.	2.a-;\	.
!LO:TX:a:t=1	!	!	!	!	!	!	!	!	!	!	!	!	!	!	!	!	!	!	!	!	!	!
.	.	.	.	.	.	.	.	.	.	.	.	.	.	.	.	.	.	.	.	.	.	.
==;;	==	==	==;;	==	==	==;;	==	==	==;;	==	==;;	==	==;;	==	==;;	==	==;;	==	==;;	==	==;;	==
*-	*-	*-	*-	*-	*-	*-	*-	*-	*-	*-	*-	*-	*-	*-	*-	*-	*-	*-	*-	*-	*-	*-
!!!system-decoration: [g1][g2][g3]
!!!RDF**kern: > = above
!!!RDF**kern: < = below
!!!EED: Antoni Szymański
!!!EST: 2020-12-27
!!!ENC: Andrzej Gręziak
!!!END: 2020-07-04
